symbols/web/volume_off/materialsymbolsrounded/volume_off_wght100gradN25_48px.svg

<svg xmlns="http://www.w3.org/2000/svg" height="48" width="48"><path d="m37.8 42.35-5.7-5.7q-.65.35-1.225.675-.575.325-1.275.525-.25.2-.5.05-.25-.15-.25-.6 0-.15.075-.225.075-.075.225-.125.5-.25 1.05-.5t1.15-.6l-8.5-8.5v3.1q0 .95-.85 1.275-.85.325-1.45-.325l-4-4H11.4q-.65 0-1-.35t-.35-1v-4.1q0-.65.35-1t1-.35h4.65L6.2 10.75q-.1-.15-.125-.4-.025-.25.125-.45.2-.1.425-.1.225 0 .375.1l31.65 31.65q.15.15.15.4t-.15.4q-.15.2-.4.2t-.45-.2ZM29.6 9.9q4.3 1.9 6.975 5.625T39.25 23.9q0 2.65-.9 5t-2.4 4.35l-.8-.8q1.45-1.75 2.225-3.925.775-2.175.775-4.625 0-4.35-2.45-7.9-2.45-3.55-6.55-5.05-.2-.05-.25-.175-.05-.125-.05-.325 0-.25.25-.45t.5-.1ZM19.45 24Zm11.3 4.05-1.9-1.9V17.7q1.45 1.1 2.225 2.775.775 1.675.775 3.525 0 1.05-.275 2.1t-.825 1.95Zm-7.9-7.9-2.9-2.95.6-.6q.6-.7 1.45-.3.85.4.85 1.15Zm-1.1 10.8V26.3l-4.6-4.6h-6v4.6H17Z"/></svg>

<svg xmlns="http://www.w3.org/2000/svg" height="48" width="48"><path d="M37.8 42.35 32.1 36.65Q31.45 37 30.875 37.325Q30.3 37.65 29.6 37.85Q29.35 38.05 29.1 37.9Q28.85 37.75 28.85 37.3Q28.85 37.15 28.925 37.075Q29 37 29.15 36.95Q29.65 36.7 30.2 36.45Q30.75 36.2 31.35 35.85L22.85 27.35V30.45Q22.85 31.4 22 31.725Q21.15 32.05 20.55 31.4L16.55 27.4H11.4Q10.75 27.4 10.4 27.05Q10.05 26.7 10.05 26.05V21.95Q10.05 21.3 10.4 20.95Q10.75 20.6 11.4 20.6H16.05L6.2 10.75Q6.1 10.6 6.075 10.35Q6.05 10.1 6.2 9.9Q6.4 9.8 6.625 9.8Q6.85 9.8 7 9.9L38.65 41.55Q38.8 41.7 38.8 41.95Q38.8 42.2 38.65 42.35Q38.5 42.55 38.25 42.55Q38 42.55 37.8 42.35ZM29.6 9.9Q33.9 11.8 36.575 15.525Q39.25 19.25 39.25 23.9Q39.25 26.55 38.35 28.9Q37.45 31.25 35.95 33.25L35.15 32.45Q36.6 30.7 37.375 28.525Q38.15 26.35 38.15 23.9Q38.15 19.55 35.7 16Q33.25 12.45 29.15 10.95Q28.95 10.9 28.9 10.775Q28.85 10.65 28.85 10.45Q28.85 10.2 29.1 10Q29.35 9.8 29.6 9.9ZM19.45 24ZM30.75 28.05 28.85 26.15V17.7Q30.3 18.8 31.075 20.475Q31.85 22.15 31.85 24Q31.85 25.05 31.575 26.1Q31.3 27.15 30.75 28.05ZM22.85 20.15 19.95 17.2 20.55 16.6Q21.15 15.9 22 16.3Q22.85 16.7 22.85 17.45ZM21.75 30.95V26.3L17.15 21.7H11.15V26.3H17Z"/></svg>
